X:1
T:The King's Fancy
M:6/8
L:1/8
R:jig
K:C 
|:c/2d/2|edc cBc|Acf Gce|FAd EGc|dBG agf|
edc cBc|Acf Gce|FAd EGc|dBG c2:|
|:c/2d/2|ecA A^GA|EAc ecA|B^GE dBG|efe dcB|
ecA A^GA|EAc ecA|B^GE efe|dcB A2:|
